app/src/assets/image/logos/redis.svg

<?xml version="1.0" encoding="UTF-8"?>
<svg width="171px" height="146px" viewBox="0 0 171 146" version="1.1" xmlns="http://www.w3.org/2000/svg" xmlns:xlink="http://www.w3.org/1999/xlink">
    <!-- Generator: Sketch 43.2 (39069) - http://www.bohemiancoding.com/sketch -->
    <title>redis</title>
    <desc>Created with Sketch.</desc>
    <defs></defs>
    <g id="Page-1" stroke="none" stroke-width="1" fill="none" fill-rule="evenodd">
        <g id="redis" transform="translate(-1.000000, 0.000000)" fill-rule="nonzero">
            <path d="M164.44414,112.42705 C155.36614,117.15905 108.33814,136.49505 98.32614,141.71405 C88.31414,146.93505 82.75214,146.88405 74.84314,143.10305 C66.93414,139.32205 16.88814,119.10705 7.87314,114.79805 C3.36714,112.64405 0.99814,110.82705 0.99814,109.11005 L0.99814,91.91505 C0.99814,91.91505 66.15114,77.73105 76.67014,73.95805 C87.18814,70.18405 90.83714,70.04805 99.78814,73.32705 C108.74014,76.60605 162.26214,86.26305 171.10914,89.50305 C171.10914,89.50305 171.10514,104.86005 171.10514,106.45405 C171.10614,108.15405 169.06514,110.01905 164.44414,112.42705 L164.44414,112.42705 Z" id="Shape" fill="#A41E11"></path>
            <path d="M164.44414,95.22705 C155.36614,99.95705 108.33814,119.29505 98.32614,124.51405 C88.31414,129.73505 82.75214,129.68405 74.84314,125.90305 C66.93314,122.12405 16.88814,101.90505 7.87314,97.59805 C-1.14186,93.28905 -1.33086,90.32305 7.52514,86.85605 C16.38014,83.38705 66.15114,63.86005 76.67114,60.08605 C87.18914,56.31405 90.83814,56.17605 99.78914,59.45605 C108.74114,62.73505 155.48814,81.34205 164.33414,84.58205 C173.18214,87.82505 173.52214,90.49505 164.44414,95.22705 L164.44414,95.22705 Z" id="Shape" fill="#D82C20"></path>
            <path d="M164.44414,84.38705 C155.36614,89.11905 108.33814,108.45505 98.32614,113.67605 C88.31414,118.89505 82.75214,118.84405 74.84314,115.06305 C66.93314,111.28405 16.88814,91.06705 7.87314,86.75805 C3.36714,84.60405 0.99814,82.78905 0.99814,81.07205 L0.99814,63.87505 C0.99814,63.87505 66.15114,49.69205 76.67014,45.91805 C87.18814,42.14505 90.83714,42.00805 99.78814,45.28705 C108.74014,48.56605 162.26214,58.22105 171.10914,61.46205 C171.10914,61.46205 171.10514,76.81905 171.10514,78.41505 C171.10614,80.11405 169.06514,81.97905 164.44414,84.38705 L164.44414,84.38705 Z" id="Shape" fill="#A41E11"></path>
            <path d="M164.44414,67.18705 C155.36614,71.91905 108.33814,91.25505 98.32614,96.47605 C88.31414,101.69505 82.75214,101.64405 74.84314,97.86305 C66.93314,94.08405 16.88814,73.86605 7.87314,69.55805 C-1.14186,65.25005 -1.33086,62.28405 7.52514,58.81505 C16.38014,55.34805 66.15114,35.82005 76.67114,32.04705 C87.18914,28.27405 90.83814,28.13705 99.78914,31.41605 C108.74114,34.69505 155.48814,53.30105 164.33414,56.54205 C173.18214,59.78405 173.52214,62.45505 164.44414,67.18705 L164.44414,67.18705 Z" id="Shape" fill="#D82C20"></path>
            <path d="M164.44414,55.30705 C155.36614,60.03905 108.33814,79.37605 98.32614,84.59705 C88.31414,89.81605 82.75214,89.76505 74.84314,85.98405 C66.93314,82.20505 16.88814,61.98705 7.87314,57.67905 C3.36714,55.52505 0.99814,53.70905 0.99814,51.99305 L0.99814,34.79605 C0.99814,34.79605 66.15114,20.61305 76.67014,16.84005 C87.18814,13.06605 90.83714,12.93005 99.78814,16.20905 C108.74014,19.48805 162.26214,29.14305 171.10914,32.38405 C171.10914,32.38405 171.10514,47.74105 171.10514,49.33605 C171.10614,51.03405 169.06514,52.89905 164.44414,55.30705 L164.44414,55.30705 Z" id="Shape" fill="#A41E11"></path>
            <path d="M164.44414,38.10705 C155.36614,42.83905 108.33814,62.17605 98.32614,67.39605 C88.31414,72.61505 82.75214,72.56405 74.84314,68.78405 C66.93414,65.00405 16.88814,44.78705 7.87314,40.47905 C-1.14186,36.17105 -1.33086,33.20405 7.52514,29.73605 C16.38014,26.26805 66.15114,6.74205 76.67114,2.96805 C87.18914,-0.80595 90.83814,-0.94195 99.78914,2.33805 C108.74114,5.61705 155.48814,24.22305 164.33414,27.46405 C173.18214,30.70405 173.52214,33.37605 164.44414,38.10705 Z" id="Shape" fill="#D82C20"></path>
            <polygon id="Shape" fill="#FFFFFF" points="108.34414 21.54705 93.60414 23.07705 90.30414 31.01705 84.97414 22.15705 67.95414 20.62705 80.65414 16.04705 76.84414 9.01705 88.73414 13.66705 99.94414 9.99705 96.91414 17.26705"></polygon>
            <polygon id="Shape" fill="#FFFFFF" points="89.42414 60.06705 61.91414 48.65705 101.33414 42.60705"></polygon>
            <ellipse id="Oval" fill="#FFFFFF" cx="51.28414" cy="34.12705" rx="21.069" ry="8.167"></ellipse>
            <polygon id="Shape" fill="#7A0C00" points="125.76414 23.71705 149.09414 32.93705 125.78414 42.14705"></polygon>
            <polygon id="Shape" fill="#AD2115" points="99.95414 33.92705 125.76414 23.71705 125.78414 42.14705 123.25414 43.13705"></polygon>
        </g>
    </g>
</svg>

<svg width="171" height="146" viewBox="0 0 171 146" xmlns="http://www.w3.org/2000/svg"><title>redis</title><g transform="translate(-1)" fill="none"><path d="M164.444 112.427c-9.078 4.732-56.106 24.068-66.118 29.287-10.012 5.221-15.574 5.17-23.483 1.389-7.909-3.781-57.955-23.996-66.97-28.305-4.506-2.154-6.875-3.971-6.875-5.688V91.915S66.151 77.731 76.67 73.958c10.518-3.774 14.167-3.91 23.118-.63 8.952 3.278 62.474 12.935 71.321 16.175l-.004 16.951c.001 1.7-2.04 3.565-6.66 5.973z" fill="#A41E11"/><path d="M164.444 95.227c-9.078 4.73-56.106 24.068-66.118 29.287-10.012 5.221-15.574 5.17-23.483 1.389-7.91-3.779-57.955-23.998-66.97-28.305-9.015-4.309-9.204-7.275-.348-10.742 8.855-3.469 58.626-22.996 69.146-26.77 10.518-3.772 14.167-3.91 23.118-.63 8.952 3.279 55.7 21.886 64.545 25.126 8.848 3.243 9.188 5.913.11 10.645z" fill="#D82C20"/><path d="M164.444 84.387c-9.078 4.732-56.106 24.068-66.118 29.29-10.012 5.218-15.574 5.167-23.483 1.386-7.91-3.779-57.955-23.996-66.97-28.305C3.367 84.604.998 82.789.998 81.072V63.875S66.151 49.692 76.67 45.918c10.518-3.773 14.167-3.91 23.118-.63 8.952 3.278 62.474 12.933 71.321 16.174l-.004 16.953c.001 1.699-2.04 3.564-6.66 5.972z" fill="#A41E11"/><path d="M164.444 67.187c-9.078 4.732-56.106 24.068-66.118 29.29-10.012 5.218-15.574 5.167-23.483 1.386-7.91-3.779-57.955-23.997-66.97-28.305s-9.204-7.274-.348-10.743c8.855-3.467 58.626-22.995 69.146-26.768 10.518-3.773 14.167-3.91 23.118-.63 8.952 3.278 55.7 21.884 64.545 25.125 8.848 3.242 9.188 5.913.11 10.645z" fill="#D82C20"/><path d="M164.444 55.307c-9.078 4.732-56.106 24.07-66.118 29.29-10.012 5.22-15.574 5.168-23.483 1.387-7.91-3.779-57.955-23.997-66.97-28.305-4.506-2.154-6.875-3.97-6.875-5.686V34.796S66.151 20.613 76.67 16.84c10.518-3.774 14.167-3.91 23.118-.63 8.952 3.278 62.474 12.933 71.321 16.174l-.004 16.952c.001 1.698-2.04 3.563-6.66 5.971z" fill="#A41E11"/><path d="M164.444 38.107c-9.078 4.732-56.106 24.069-66.118 29.29-10.012 5.218-15.574 5.167-23.483 1.387-7.909-3.78-57.955-23.997-66.97-28.305s-9.204-7.275-.348-10.743C16.38 26.268 66.151 6.742 76.671 2.968 87.19-.806 90.838-.942 99.79 2.338c8.952 3.279 55.7 21.885 64.545 25.126 8.848 3.24 9.188 5.912.11 10.643z" fill="#D82C20"/><path fill="#FFF" d="M108.344 21.547l-14.74 1.53-3.3 7.94-5.33-8.86-17.02-1.53 12.7-4.58-3.81-7.03 11.89 4.65 11.21-3.67-3.03 7.27zm-18.92 38.52l-27.51-11.41 39.42-6.05z"/><ellipse fill="#FFF" cx="51.284" cy="34.127" rx="21.069" ry="8.167"/><path fill="#7A0C00" d="M125.764 23.717l23.33 9.22-23.31 9.21z"/><path fill="#AD2115" d="M99.954 33.927l25.81-10.21.02 18.43-2.53.99z"/></g></svg>
